X:110
T: Well I Know What Kitty Wants
S: "Where's the Crack v/1" (DJ Taylor)
Z: B.Black
L: 1/8
M: 12/8
R: slide
K: G
D | G2 F G2 A B2 e ege | d2 B BAB d2 B B2 A |
G3-G2 A B2 e ege |1 d2 B ABA G3-G2 :|2
d2 B ABA G3-G2 || f | g2 f e2 d e2 f gfe |
d2 B BAB d2 B B2 A | g2 f e2 d e2 f gfe |
|1 d2 B ABA G3-G2 :|2 d2 B ABA G3-G2 ||
